icon-themes/breeze_svg/sw/res/sidebar/pageproppanel/formatcopy_24x24.svg

<svg viewBox="0 0 24 24" xmlns="http://www.w3.org/2000/svg"><path d="m3 6v1 13h1 18v-13-1h-1-17zm1 1h17v12h-16-1z" fill="#4d4d4d"/></svg>

<svg xmlns="http://www.w3.org/2000/svg" viewBox="0 0 24 24">
 <path 
     style="fill:#4d4d4d" 
     d="M 3 6 L 3 7 L 3 20 L 4 20 L 22 20 L 22 7 L 22 6 L 21 6 L 4 6 L 3 6 z M 4 7 L 21 7 L 21 19 L 5 19 L 4 19 L 4 7 z "
     />
</svg>
